src/assets/img/icons/dark/icon-technologies-el.svg

<svg width="65" height="101" viewBox="0 0 65 101" fill="none" xmlns="http://www.w3.org/2000/svg">
<g style="mix-blend-mode:luminosity">
<path fill-rule="evenodd" clip-rule="evenodd" d="M35.2094 0.251709C27.9442 2.82687 20.9306 10.3435 14.1692 22.801C4.0269 41.4874 -9.07235 68.0413 8.96558 89.0655C17.3104 98.7919 31.0886 104.532 49.1705 95.4407C63.6967 88.1369 67.7364 67.1771 62.5214 57.3279C51.7638 37.0103 40.8497 31.9991 37.927 19.3992C35.9787 10.999 35.0727 4.61662 35.2091 0.251709H35.2094Z" fill="url(#paint0_linear)"/>
<path fill-rule="evenodd" clip-rule="evenodd" d="M35.2094 0C27.9072 2.60183 20.8939 10.1182 14.1692 22.5493C4.08227 41.196 -9.07234 67.7896 8.96558 88.8138C17.3104 98.5402 30.9112 101.683 38.4582 95.9147C43.378 92.154 46.7242 88.5695 48.6521 81.0166C50.7987 72.6064 49.1517 61.2841 48.023 56.0829C46.5951 49.5012 46.1276 42.2773 46.6208 34.4112L46.2312 33.9355C42.3022 29.1275 39.2705 24.939 37.927 19.1475C35.9787 10.7473 35.0727 4.36491 35.2091 0L35.2094 0Z" fill="url(#paint1_linear)"/>
<path fill-rule="evenodd" clip-rule="evenodd" d="M29.1632 3.27148C22.3618 8.64677 17.3048 17.663 13.9918 30.3203C9.02347 49.306 8.48493 66.8136 10.2374 76.9975C13.6347 96.7389 31.2469 104.232 49.312 95.0435C60.4295 89.3886 65.0601 77.2504 64.8148 64.0747C64.5606 50.4324 38.1975 34.9711 33.5289 23.5856C30.4164 15.9953 28.9611 9.22381 29.1632 3.27148Z" fill="url(#paint2_linear)"/>
<path fill-rule="evenodd" clip-rule="evenodd" d="M46.4059 38.8663C54.563 49.3275 56.3411 56.6095 51.7402 60.7127C44.8389 66.8676 27.9626 70.8832 17.4636 63.4381C10.4644 58.4745 7.81629 47.8266 9.51897 31.4944C6.62975 37.5282 4.18671 43.6409 2.1901 49.8318C0.193747 56.0227 -0.389331 62.5015 0.441121 69.2681C2.9433 74.3301 9.02699 77.7111 18.6919 79.4107C33.1896 81.96 46.9112 80.7002 56.1187 76.0587C62.2567 72.9647 65.16 69.8844 64.8283 66.818C65.05 62.2901 63.6539 57.98 60.6396 53.8871C57.6256 49.7943 52.8812 44.7874 46.4062 38.8663H46.4059Z" fill="url(#paint3_linear)"/>
<path fill-rule="evenodd" clip-rule="evenodd" d="M14.5303 28.4207C14.4621 35.9758 16.4046 43.1574 20.3581 49.9664C26.288 60.1797 33.21 70.2717 43.5682 78.6371C50.4736 84.214 55.9915 86.0155 60.1214 84.0426C56.7291 90.1134 53.1225 93.0882 49.3006 92.9669C43.5682 92.785 36.5786 90.2798 25.3791 76.8214C17.9128 67.849 12.8053 59.3618 10.056 51.36C10.4921 48.1854 10.9544 45.0234 11.4428 41.8742C11.9315 38.7248 12.9605 34.2404 14.5303 28.4209V28.4207Z" fill="url(#paint4_linear)"/>
<path fill-rule="evenodd" clip-rule="evenodd" d="M32.0494 38.7886C32.6828 44.943 35.0778 54.7881 32.0494 61.3429C29.0208 67.8977 15.0324 79.7392 18.8938 90.1704C22.7551 100.602 32.1652 98.26 38.0679 93.4527C43.9707 88.6454 47.1304 80.8286 47.8308 75.3312C48.5311 69.8341 46.155 59.2565 45.3822 50.056C44.867 43.9223 45.2166 38.6635 46.4308 34.2792L44.6222 32.003L33.976 28.8508C32.2691 31.3731 31.6269 34.6856 32.0494 38.7886Z" fill="url(#paint5_linear)"/>
<path fill-rule="evenodd" clip-rule="evenodd" d="M35.8496 8.30445C32.4037 9.76051 29.139 12.6455 26.0555 16.9595C21.4302 23.4305 19.0744 27.3095 20.8181 40.1367C21.9808 48.6878 22.8127 56.5552 23.3145 63.7381L38.2254 20.414C37.6771 18.2065 37.2213 16.2126 36.8574 14.4327C36.4936 12.6527 36.1579 10.6101 35.8493 8.3042L35.8496 8.30445Z" fill="url(#paint6_linear)"/>
<path fill-rule="evenodd" clip-rule="evenodd" d="M38.197 20.3279C34.4116 22.5374 31.4786 27.0639 29.3977 33.9075C27.3168 40.7512 25.413 50.3183 23.6865 62.609C25.9891 54.7916 27.5169 49.1295 28.269 45.6227C29.3977 40.3624 29.7832 32.9238 32.7794 27.8737C34.777 24.5071 36.5829 21.9918 38.197 20.3279Z" fill="#330A4C" fill-opacity="0.316"/>
<path fill-rule="evenodd" clip-rule="evenodd" d="M20.6702 93.6543C26.8996 94.5441 30.1567 95.3353 30.4421 96.0279C30.8701 97.0665 29.6536 98.0167 26.1959 97.378C23.8908 96.9527 22.0487 95.7113 20.6702 93.6543Z" fill="white"/>
<path fill-rule="evenodd" clip-rule="evenodd" d="M23.7997 8.30444C20.3737 12.3976 17.4045 16.7371 14.893 21.3224C12.3815 25.9083 10.587 29.3292 9.50914 31.5858C9.1752 33.2686 9.01213 35.7519 9.02018 39.0354C9.02823 42.319 9.3121 45.97 9.87228 49.9884C10.3625 42.1197 11.8636 34.4816 14.3756 27.0747C16.8873 19.6675 20.0287 13.4105 23.8 8.30444H23.7997Z" fill="#EDEDED" fill-opacity="0.603"/>
</g>
<defs>
<linearGradient id="paint0_linear" x1="33.8098" y1="7.62217" x2="30.3406" y2="99.9261" gradientUnits="userSpaceOnUse">
<stop stop-color="#D9D8DC"/>
<stop offset="1" stop-color="white" stop-opacity="0.385"/>
</linearGradient>
<linearGradient id="paint1_linear" x1="35.3778" y1="7.59894" x2="-0.87717" y2="87.0591" gradientUnits="userSpaceOnUse">
<stop stop-color="#8D67AF" stop-opacity="0.672"/>
<stop offset="1" stop-color="#9F8DAF"/>
</linearGradient>
<linearGradient id="paint2_linear" x1="39.4248" y1="33.344" x2="39.4248" y2="97.2427" gradientUnits="userSpaceOnUse">
<stop stop-color="#26053D" stop-opacity="0.762"/>
<stop offset="1" stop-color="#B7B4B4" stop-opacity="0.278"/>
</linearGradient>
<linearGradient id="paint3_linear" x1="6.63908" y1="37.6647" x2="22.9062" y2="80.7554" gradientUnits="userSpaceOnUse">
<stop stop-color="#91739F" stop-opacity="0.46"/>
<stop offset="1" stop-color="#32054F" stop-opacity="0.54"/>
</linearGradient>
<linearGradient id="paint4_linear" x1="50.1199" y1="90.6536" x2="5.38662" y2="53.5874" gradientUnits="userSpaceOnUse">
<stop stop-color="#463D49" stop-opacity="0.331"/>
<stop offset="1" stop-color="#340A50" stop-opacity="0.821"/>
</linearGradient>
<linearGradient id="paint5_linear" x1="40.9254" y1="33.9459" x2="9.3758" y2="81.9419" gradientUnits="userSpaceOnUse">
<stop stop-color="#715383" stop-opacity="0.145"/>
<stop offset="1" stop-color="#F4F4F4" stop-opacity="0.234"/>
</linearGradient>
<linearGradient id="paint6_linear" x1="43.9425" y1="48.5855" x2="21.5996" y2="47.2216" gradientUnits="userSpaceOnUse">
<stop stop-color="#A5A1A8" stop-opacity="0.356"/>
<stop offset="1" stop-color="#370C50" stop-opacity="0.582"/>
</linearGradient>
</defs>
</svg>

<svg xmlns="http://www.w3.org/2000/svg" width="65" height="101" fill="none"><g fill-rule="evenodd" clip-rule="evenodd" style="mix-blend-mode:luminosity"><path fill="url(#paint0_linear)" d="M35.2.25c-7.26 2.58-14.27 10.1-21.03 22.55C4.03 41.5-9.07 68.04 8.97 89.07c8.34 9.72 22.12 15.46 40.2 6.37 14.53-7.3 18.57-28.26 13.35-38.11C51.76 37 40.85 32 37.92 19.4 35.99 11 35.08 4.62 35.22.25z"/><path fill="url(#paint1_linear)" d="M35.2 0c-7.3 2.6-14.3 10.12-21.03 22.55C4.08 41.2-9.07 67.79 8.97 88.8c8.34 9.73 21.94 12.87 29.49 7.1 4.92-3.76 8.26-7.34 10.2-14.9 2.14-8.4.5-19.73-.64-24.93a78.85 78.85 0 01-1.4-21.67l-.39-.47c-3.93-4.81-6.96-9-8.3-14.8C35.98 10.75 35.07 4.37 35.2 0z"/><path fill="url(#paint2_linear)" d="M29.16 3.27C22.36 8.65 17.3 17.67 14 30.32 9.02 49.31 8.5 66.82 10.24 77c3.4 19.74 21 27.23 39.07 18.04 11.12-5.65 15.75-17.79 15.5-30.97-.25-13.64-26.61-29.1-31.28-40.48-3.11-7.6-4.57-14.37-4.37-20.32z"/><path fill="url(#paint3_linear)" d="M46.4 38.87c8.16 10.46 9.94 17.74 5.34 21.84-6.9 6.16-23.78 10.17-34.28 2.73-7-4.97-9.64-15.61-7.94-31.95a146.68 146.68 0 00-7.33 18.34A44.8 44.8 0 00.44 69.27c2.5 5.06 8.59 8.44 18.25 10.14 14.5 2.55 28.22 1.29 37.43-3.35 6.14-3.1 9.04-6.18 8.7-9.24.23-4.53-1.17-8.84-4.18-12.93-3.01-4.1-7.76-9.1-14.23-15.02z"/><path fill="url(#paint4_linear)" d="M14.53 28.42a41.5 41.5 0 005.83 21.55c5.93 10.21 12.85 20.3 23.2 28.67 6.91 5.57 12.43 7.38 16.56 5.4-3.4 6.07-7 9.05-10.82 8.93-5.73-.19-12.72-2.69-23.92-16.15-7.47-8.97-12.57-17.46-15.32-25.46.43-3.17.9-6.34 1.38-9.49a135.9 135.9 0 013.09-13.45z"/><path fill="url(#paint5_linear)" d="M32.05 38.79c.63 6.15 3.03 16 0 22.55-3.03 6.56-17.02 18.4-13.16 28.83 3.87 10.43 13.28 8.09 19.18 3.28 5.9-4.8 9.06-12.62 9.76-18.12.7-5.5-1.67-16.07-2.45-25.27-.51-6.14-.16-11.4 1.05-15.78L44.63 32l-10.65-3.15c-1.71 2.52-2.35 5.84-1.93 9.94z"/><path fill="url(#paint6_linear)" d="M35.85 8.3c-3.45 1.46-6.71 4.35-9.8 8.66-4.62 6.47-6.98 10.35-5.23 23.18 1.16 8.55 2 16.42 2.5 23.6l14.9-43.33c-.54-2.2-1-4.2-1.36-5.98-.37-1.78-.7-3.82-1.01-6.13z"/><path fill="#330A4C" fill-opacity=".316" d="M38.2 20.33c-3.79 2.2-6.72 6.73-8.8 13.58-2.08 6.84-3.99 16.4-5.71 28.7 2.3-7.82 3.83-13.48 4.58-16.99 1.13-5.26 1.51-12.7 4.5-17.75 2-3.36 3.81-5.88 5.43-7.54z"/><path fill="#fff" d="M20.67 93.65c6.23.9 9.49 1.69 9.77 2.38.43 1.04-.79 1.99-4.24 1.35a8.26 8.26 0 01-5.53-3.73z"/><path fill="#EDEDED" fill-opacity=".603" d="M23.8 8.3a80.5 80.5 0 00-8.9 13.02c-2.52 4.59-4.31 8-5.4 10.27a40.7 40.7 0 00-.48 7.45c0 3.28.3 6.93.85 10.95.5-7.87 2-15.5 4.5-22.92 2.52-7.4 5.66-13.66 9.43-18.77z"/></g><defs><linearGradient id="paint0_linear" x1="33.81" x2="30.341" y1="7.622" y2="99.926" gradientUnits="userSpaceOnUse"><stop stop-color="#D9D8DC"/><stop offset="1" stop-color="#fff" stop-opacity=".385"/></linearGradient><linearGradient id="paint1_linear" x1="35.378" x2="-.877" y1="7.599" y2="87.059" gradientUnits="userSpaceOnUse"><stop stop-color="#8D67AF" stop-opacity=".672"/><stop offset="1" stop-color="#9F8DAF"/></linearGradient><linearGradient id="paint2_linear" x1="39.425" x2="39.425" y1="33.344" y2="97.243" gradientUnits="userSpaceOnUse"><stop stop-color="#26053D" stop-opacity=".762"/><stop offset="1" stop-color="#B7B4B4" stop-opacity=".278"/></linearGradient><linearGradient id="paint3_linear" x1="6.639" x2="22.906" y1="37.665" y2="80.755" gradientUnits="userSpaceOnUse"><stop stop-color="#91739F" stop-opacity=".46"/><stop offset="1" stop-color="#32054F" stop-opacity=".54"/></linearGradient><linearGradient id="paint4_linear" x1="50.12" x2="5.387" y1="90.654" y2="53.587" gradientUnits="userSpaceOnUse"><stop stop-color="#463D49" stop-opacity=".331"/><stop offset="1" stop-color="#340A50" stop-opacity=".821"/></linearGradient><linearGradient id="paint5_linear" x1="40.925" x2="9.376" y1="33.946" y2="81.942" gradientUnits="userSpaceOnUse"><stop stop-color="#715383" stop-opacity=".145"/><stop offset="1" stop-color="#F4F4F4" stop-opacity=".234"/></linearGradient><linearGradient id="paint6_linear" x1="43.943" x2="21.6" y1="48.586" y2="47.222" gradientUnits="userSpaceOnUse"><stop stop-color="#A5A1A8" stop-opacity=".356"/><stop offset="1" stop-color="#370C50" stop-opacity=".582"/></linearGradient></defs></svg>
